X:1
T:Title
%%score ( 1 2 ) { 3 | 4 }
L:1/8
Q:1/4=95
M:4/4
K:G
V:1 treble nm="Grand Piano, Soprano"
V:2 treble 
V:3 treble nm="Choir Pad, God’s Anvil"
V:4 bass 
V:1
 D2 [GB][GB] [GB][GB] [Gc]2 | [GB]2 [GB][FA] z4 | [FA]2 [FA][FA] [FA][FA] [Fd]2 | [Ac]2 [GB]6 | %4
w: By~Anonymous * * * * *||||
 G2 [GB][GB] [GB][GB] [Gc]2 | [GB]2 [GB][FA] z4 | D2 [FA][FA] [FA][FA] [GB]2 | [FA]2 G6 | %8
w: ||||
 [B,D]2 [CE]2 [CE]2 [Ec][Ec]- | [Ec]2 [B,D]2 [B,D]2 [DB]2 | z [DG][DA][DA] [DA][DA] [DB]2 | %11
w: |||
 [DA]2 Bd- d3- d/ z/ | [B,D]2 [CE]2 [CE]2 [Ec][Ec]- | [Ec]2 [DB]2 [DB]2 [Dd]2- | %14
w: |||
 [Dd][DG][DA][DA] [DA][DA] [Dc]2 | [DF]2 [DG]6- | [DG]2 z2 z4 |] %17
w: |||
V:2
 x8 | x8 | x8 | x8 | x8 | x8 | x8 | x8 | x8 | x8 | x8 | z2 D6 | x8 | x8 | x8 | x8 | x8 |] %17
V:3
 B,2 DD DD E2 | D2 DD z4 | D2 DD DD A,2 | D2 D6 | B,2 DD DD E2 | D2 DD z4 | D2 DD DD D2 | %7
 C2[K:bass] B,6 | G,2 G,2 G,2 G,G,- | G,2 G,2 G,2 G,2 | z G,F,F, F,F, G,2 | F,2 G,B,- B,3- B,/ z/ | %12
 G,2 G,2 G,2 G,G,- | G,2 G,2 G,2 G,2- | G,G,F,F, F,F, A,2 | C2 B,6- | B,2 z2 z4 |] %17
V:4
 G,2 G,G, G,G, G,2 | G,2 D,D, z4 | D,2 D,D, D,D, D,2 | D,2 G,6 | G,2 G,G, G,G, G,2 | G,2 D,D, z4 | %6
 D,2 D,D, D,D, D,2 | D,2 G,6 | G,,2 C,2 C,2 C,C,- | C,2 z2 z4 | z B,,D,D, D,D, D,2 | D,2 z2 z4 | %12
 z4 C,2 C,C,- | C,2 z2 z2 B,,2- | B,,B,,D,D, D,D, D,2 | D,2 [G,,G,]6- | [G,,G,]2 z2 z4 |] %17

